X:255
T: Rose in the Heather
M: 6/8
L: 1/8
R: Jig
K: D
D2 F EFE|DFA BAF|ABd ede|fdB AFE|
F3 E3|DFA BAF|AdB AFE|FDD D3 :|
fdB ABd|faa afd|g3 fed|Bee efg|
fdB ABd|faa afa|baf gfe|fdc d3 :|
